X:10
T:Berserkers Polka
C:F.J.Aalto
O:Sweden
%R:Polka
Z:Bob Wyttenbach 8/13/02 from NFF 2001 tunebook
M:2/4
L:1/8
%Q:1/4=120
K:E %Transposed from D
P:A
"D"g2gf/g/|"A7"af dc|"G"ed/e/ cA|"A7"B3A|
"D"GA/B/ "A7"F/G/A|"D"GA/B/ "A7"F/G/A|"G"cd/e/ "A7"f/g/a|"D"g2"A7"fB|
"D"g2gf/g/|"A7"af dc|"G"ed/e/ cA|"A7"B3A|
"D"G/E/c/B/ "A7"FA|"D"G/B/e/g/ "Em"af|"A7"dc/d/ fd|[1"D"e3f:|[2"D"e3b||
P:B
"A7"af/e/ dB|"A7"af/e/ dB|"Bm"ed/e/ "Em"cA|"A7"B3A|
"D"GE "A7"cB/A/|"D"GB/e/ gb|[1"Em"af "A7"cd|"D"f2eb:|[2"Em"ga "A7"fd|"D"e3B||
